X:3604
L:1/8
M:6/8
K:G
 D2 F | G3 c2 A | B3 A{c}BA | G>Bd g3 | a2 g fdB | c3 B2 c | d3 edc |1 B G2 B d2- | d2 d c2 B | 
 A3 :|2 B G2 c3 | A2 F G2 F | (G3 G2) || def | g3 Bcd | f2 e d2 A | B2 A GBd | g3 Bcd | 
 f2{g} e (d3 | d3) D2 F | G3 c2 A | B3 A{c}BA | GBd g3 | a2 g fdB | c3 B2 c | d3 edc | B G2{d} c3 | 
 A F2 G2{AG} F2 | (G3- G3- | G3) ||

